!!!OTL: Der Tyroler und sein Kind (3-11), S. 30f
!!!id: K1148
**kern
*clefG2
*k[b-]
*F:
{4a
=1
8b-
8g
4.ee
8dd
=2
8cc
8f
4.a
8cc}
=3
{8cc
8b
8b-
8a
8b-
8dd
=4
4cc}
4r
=5
{4a
=6
8b-
8g
4.ee
8dd
=7
8cc
8f
4.a}
=8
{8cc
=9
8cc
8b
8b-
8a
8b-
8e
=10
4f}
4r
=11
{4a
=12
8.g
16g
4a
4b
=13
8cc
8dd
4.ee}
=14
{8ee
=15
8ee
8dd
4.ff
8b
=16
8ee
8g
4cc}
8r
=17
{8cc
=18
8cc
8b-
16ee-
4dd
16r
8cc
=19
8.b-
16a
4a}
8r
=20
{8a
=21
8a
8g
4.b-
8e
=22
8.g
16f
4f}
8r
=23
{8cc
=24
8dd
8ee
4.ff
8dd
=25
8ee
8dd
4.cc}
=26
{8cc
=27
8cc
8b
8b-
8a
8b-
8e
=28
4f}
4r
==
*-
!!!minrhy: 16
!!!meters: 3/4 ]  ZZ[10
!!!cut: Der Tyroler und sein Kind (3-11), S. 30f
!!!reg: Luxemburg
!!!trd: KINTZELE, Guillaume: An der Ucht, Bd. 3 Luxemburg 1928
!!!rhy1: X__  X_X_X__.X_  X_X_X__.X_   (x2)
!!!rhy2: X_X_X_X_X_X_  X__0_
!!!key: K1148  16  F 3/4 ]  ZZ[10
!!!mod: NEUNTONSKALA DUR ?]  AMBITUS[9b
!!!kad: 5531753151
!!!akz: 45_55_45_51_25_77_54_32_67_51_
!!!fot: 'a__b__av_bw_c__d__e__aw_f__bw_
!!!for: 'a__b__aw_bv_c__aw_d__e__aw_bv_
!!!fok: '~a_V__~__\__/__Vd_\__\__^__\__
!! PHRAS[VORWIEGEND AUFTAKTIG]
!!!fkt: Tod, melancholisch
!!!bem: in der Quelle mit einer 2. Stimme versehen
!! KINTZELE
!! PR[34] 2K[6] 2G[18] 3K[3] 3G[2] 4A[5] 4Ü[0] 5A[0] 6K[0] 6G[0]
!! 7K[0] 7G[0] 8A[0] MEHR[0] SI[34] ABS[65] SR[25] SP[9]
!! ST[14] 2k[8] 2g[18] 3k[3] 3g[2] 4d[0] 4ü[0] 5d[0] 6k[0] 6g[2]
!! 7k[0] 7g[0] 8d[0] mehr[0] si[32] dm[+2] sr[26] sp[6]
!! 1F[14] 2F[60] 3F[7] 4F[0] LF[0] 2P[11] 3P[7] 4P[0] TRI[0] DF[5] AB[70]
!! TF[0] U3K[0] U3[0] U4[0] U4Ü[0] U5[6] U6K[0] U6[0] U7K[0] U7[0]
!! N1[17] N2K[0] N2[24] N3K[0] N3[26] N4[12] N4Ü[0] N5[14] N6K[0] N6[2]
!!!n7k: 0] N7[0] O1[0] O2K[0] O2[0] O3K[0] O3[0] HÖ[0
